X: 1
T: Courtney's Favourite
R: reel
M: 4/4
L: 1/8
K: Ador
eA A2 AGEG|ea a2 edBc|dBBA GABd|egdg BcdB|
eA A2 AGEG|ea a2 edBc|dBBA GABd|egdB A2 Bd||
ea a2 ba a2|ea a2 edBc|dg g2 ag g2|efge dgBd|
ea a2 ba a2|ea a2 edBc|dBBA GABd|egdB A2 Bd||

